X:2
T:High Fiddle, The
R:reel
M:4/4
L:1/8
K:Amaj
|:eaga efdc|Bcde fgaf|eaga efdc|BcdB cAAa|
eaga efdc|Bcde fgab|ae (3eee (3fga ec|dcBd cAAB|
|:(3ccc ec acec|(3ddd ad bdad|(3ccc ec acec|faed cAAB:|
|:cA (3AAA cdef|=gd (3ddd faed|cA (3AAA cdea|1gdBd cAAB:|2gdBd cA (3Bcd||
